X: 17250
T: Herbert Smith's
R: polka
M: 2/4
K: Gmajor
|:d|Bd Bd|B/B/B/B/ Bd|Bd Bd|c/c/c/c/ ce|
ce ce|aa/g/ f>g|1 a>g f/g/f/e/|d2- d:|2 a>g fa|g2 g||
K: D Major
|:z|AB/c/ de|fg a2|a>e aa|f>e d2|
AB/c/ de|fg a2|a2 e2|a2 d:|
K: G Major
|:e/f/|gd ed|e2- ed|e>d ed|c2- cB|
[1 a2 a>g|f>g f>e|ed dc|B2- B:|
[2 a/a/a/a/ ae/f/|g>f g>e|d/e/d ef|g2- g||

